resources/svg/major-dynamic-source.svg

<svg xmlns="http://www.w3.org/2000/svg" viewBox="0 0 20 20" fill="currentColor"><path d="M10 8C14.4183 8 18 6.65685 18 5C18 3.34315 14.4183 2 10 2C5.58172 2 2 3.34315 2 5C2 6.65685 5.58172 8 10 8ZM16.9297 8.5C15.5465 9.3967 12.9611 10 10 10C7.03887 10 4.4535 9.3967 3.07026 8.5C2.38958 8.94126 2 9.45357 2 10C2 11.6569 5.58172 13 10 13C14.4183 13 18 11.6569 18 10C18 9.45357 17.6104 8.94126 16.9297 8.5ZM16.9297 13.5C15.5465 14.3967 12.9611 15 10 15C7.03887 15 4.4535 14.3967 3.07026 13.5C2.38958 13.9413 2 14.4536 2 15C2 16.6569 5.58172 18 10 18C14.4183 18 18 16.6569 18 15C18 14.4536 17.6104 13.9413 16.9297 13.5Z" fill="#5C5F62"/></svg>

<svg xmlns="http://www.w3.org/2000/svg" viewBox="0 0 20 20" fill="currentColor"><path d="M10 8c4.418 0 8-1.343 8-3s-3.582-3-8-3-8 1.343-8 3 3.582 3 8 3Zm6.93.5c-1.383.897-3.969 1.5-6.93 1.5s-5.546-.603-6.93-1.5c-.68.441-1.07.954-1.07 1.5 0 1.657 3.582 3 8 3s8-1.343 8-3c0-.546-.39-1.059-1.07-1.5Zm0 5c-1.383.897-3.969 1.5-6.93 1.5s-5.546-.603-6.93-1.5c-.68.441-1.07.954-1.07 1.5 0 1.657 3.582 3 8 3s8-1.343 8-3c0-.546-.39-1.059-1.07-1.5Z"/></svg>
